assets/icons/icon_teacher.svg

<svg width="30" height="30" viewBox="0 0 30 30" fill="none"
    xmlns="http://www.w3.org/2000/svg">
    <g clip-path="url(#clip0_116_277)">
        <path d="M4.99293 15.2665C5.42411 15.0394 5.95764 15.2047 6.18529 15.6359L9.68941 22.2859C9.9947 22.1776 10.3229 22.1188 10.6647 22.1188H12.9918C13.0059 19.7571 14.9306 17.8394 17.2941 17.8394H18.8441C18.4659 17.2482 18.2465 16.5453 18.2465 15.7929V14.0747C18.2465 11.9541 19.9876 10.2319 22.1161 10.2639C24.2075 10.2954 25.8688 12.0408 25.8688 14.1325V15.7929C25.8688 16.5453 25.6494 17.2482 25.2712 17.8394H27.4629C27.7418 17.8394 28.0147 17.8659 28.2794 17.9176V4.6947H1.72058V23.5171C1.72058 23.8419 1.98393 24.1053 2.30882 24.1053H7.88764C7.97823 23.84 8.10588 23.5924 8.26411 23.3671L4.62352 16.4582C4.39646 16.0271 4.56176 15.4935 4.99293 15.2665ZM6.15117 7.14411H15.1941C15.6812 7.14411 16.0765 7.53882 16.0765 8.02647C16.0765 8.51353 15.6812 8.90882 15.1941 8.90882H6.15117C5.66411 8.90882 5.26882 8.51353 5.26882 8.02647C5.26882 7.53882 5.66411 7.14411 6.15117 7.14411ZM6.15117 11.2571H15.1941C15.6812 11.2571 16.0765 11.6523 16.0765 12.1394C16.0765 12.6265 15.6812 13.0218 15.1941 13.0218H6.15117C5.66411 13.0218 5.26882 12.6265 5.26882 12.1394C5.26882 11.6523 5.66411 11.2571 6.15117 11.2571Z" fill="#4F46E5"/>
        <path d="M27.463 19.6041H17.2941C15.8953 19.6041 14.7565 20.7435 14.7565 22.1441V23.0012C14.7565 23.4882 14.3618 23.8835 13.8741 23.8835H10.6647C10.045 23.8835 9.53048 24.3712 9.49648 24.9876C9.44654 25.6209 9.96584 26.2276 10.6647 26.2276H15.9912C16.5041 26.2276 16.9188 25.8091 16.9188 25.2988V23.9689C16.9188 23.4935 17.2845 23.0846 17.7594 23.0627C18.2661 23.0394 18.6835 23.4432 18.6835 23.9441V29.4118C18.6835 29.7366 18.9469 30 19.2718 30H25.4312V23.9689C25.4312 23.4935 25.7968 23.0846 26.2718 23.0627C26.7785 23.0394 27.1959 23.4432 27.1959 23.9441V30H29.4118C29.7367 30 30 29.7366 30 29.4118V22.1441C30 20.7424 28.8607 19.6041 27.463 19.6041Z" fill="#6366F1"/>
        <path d="M20.0112 14.0747V15.7929C20.0112 16.9211 20.9289 17.8394 22.0577 17.8394C23.1859 17.8394 24.1042 16.9211 24.1042 15.7929V14.0747C24.1042 12.9464 23.1859 12.0282 22.0577 12.0282C20.9289 12.0282 20.0112 12.9464 20.0112 14.0747Z" fill="#6366F1"/>
        <path d="M0 0.588235V2.34176C0 2.66665 0.263353 2.93 0.588235 2.93H29.4118C29.7366 2.93 30 2.66665 30 2.34176V0.588235C30 0.263353 29.7366 0 29.4118 0H0.588235C0.263353 0 0 0.263353 0 0.588235Z" fill="#4F46E5"/>
    </g>
    <defs>
        <clipPath id="clip0_116_277">
            <rect width="30" height="30" fill="white"/>
        </clipPath>
    </defs>
</svg>

<svg fill="none" xmlns="http://www.w3.org/2000/svg" viewBox="0 0 30 30"><g clip-path="url(#a)"><path d="M4.993 15.267a.883.883 0 0 1 1.192.369l3.504 6.65c.306-.108.634-.167.976-.167h2.327a4.31 4.31 0 0 1 4.302-4.28h1.55a3.8 3.8 0 0 1-.598-2.046v-1.718a3.815 3.815 0 0 1 3.87-3.811c2.092.031 3.753 1.777 3.753 3.869v1.66c0 .752-.22 1.455-.598 2.046h2.192q.42 0 .816.079V4.695H1.721v18.822c0 .325.263.588.588.588h5.579q.137-.399.376-.738l-3.64-6.909a.88.88 0 0 1 .369-1.191M6.15 7.144h9.043a.882.882 0 1 1 0 1.765H6.151a.883.883 0 0 1 0-1.765m0 4.113h9.043a.883.883 0 0 1 0 1.765H6.151a.883.883 0 0 1 0-1.765" fill="#4F46E5"/><path d="M27.463 19.604H17.294a2.54 2.54 0 0 0-2.537 2.54v.857a.88.88 0 0 1-.883.883h-3.21a1.172 1.172 0 0 0 0 2.344h5.327a.93.93 0 0 0 .928-.93v-1.33c0-.474.366-.883.84-.905a.88.88 0 0 1 .924.881v5.468c0 .325.264.588.589.588h6.16v-6.031c0-.476.365-.884.84-.906a.88.88 0 0 1 .924.881V30h2.216a.59.59 0 0 0 .588-.588v-7.268c0-1.402-1.14-2.54-2.537-2.54m-7.452-5.529v1.718c0 1.128.918 2.046 2.047 2.046a2.05 2.05 0 0 0 2.046-2.046v-1.718a2.05 2.05 0 0 0-2.046-2.047 2.05 2.05 0 0 0-2.047 2.047" fill="#6366F1"/><path d="M0 .588v1.754c0 .325.263.588.588.588h28.824A.59.59 0 0 0 30 2.342V.588A.59.59 0 0 0 29.412 0H.588A.59.59 0 0 0 0 .588" fill="#4F46E5"/></g><defs><clipPath id="a"><path fill="#fff" d="M0 0h30v30H0z"/></clipPath></defs></svg>
